src/assets/icons/withdraw.svg

<svg width="16" height="16" viewBox="0 0 16 16" fill="none" xmlns="http://www.w3.org/2000/svg">
<g clip-path="url(#clip0_8874_15310)">
<path fill-rule="evenodd" clip-rule="evenodd" d="M7.78055 0.0254845C7.5621 0.0842252 7.58429 0.0639838 6.01491 1.63584C4.65358 2.99934 4.53046 3.12734 4.48186 3.22954C4.17795 3.86871 4.72296 4.57284 5.42138 4.44334C5.47202 4.43396 5.57116 4.39814 5.64168 4.36375C5.76157 4.3053 5.8146 4.25676 6.45799 3.61682L7.14609 2.93241V6.89826C7.14609 11.241 7.13946 10.9541 7.24458 11.1521C7.31261 11.2802 7.49662 11.4557 7.62937 11.519C7.85977 11.629 8.14198 11.629 8.37238 11.519C8.50513 11.4557 8.68915 11.2802 8.75717 11.1521C8.86229 10.9541 8.85566 11.241 8.85566 6.89826V2.93241L9.54376 3.61682C10.1872 4.25676 10.2402 4.3053 10.3601 4.36375C10.4306 4.39814 10.5297 4.43396 10.5804 4.44334C11.2788 4.57284 11.8238 3.86871 11.5199 3.22954C11.4713 3.12734 11.3482 2.99934 9.98685 1.63584C8.40902 0.0555214 8.43977 0.083473 8.21386 0.0246297C8.08967 -0.00771526 7.90261 -0.00735624 7.78055 0.0254845ZM1.7547 12.1122C1.42982 12.1908 1.16159 12.4808 1.11129 12.8077C1.07088 13.0702 1.14912 13.6062 1.28158 13.9742C1.68362 15.0912 2.68838 15.8699 3.87228 15.9821C4.13204 16.0068 11.8697 16.0068 12.1295 15.9821C13.5069 15.8516 14.6277 14.8126 14.8581 13.4527C14.8905 13.2619 14.9073 12.9171 14.8898 12.8033C14.8368 12.4585 14.5429 12.1642 14.1885 12.1008C13.8243 12.0357 13.4418 12.2326 13.2777 12.5694C13.2122 12.704 13.2055 12.7357 13.1807 13.029C13.1613 13.2576 13.1123 13.4316 13.022 13.5924C12.8439 13.9093 12.502 14.1705 12.1605 14.2506C12.033 14.2805 11.8439 14.2819 8.00088 14.2819C4.18796 14.2819 3.96793 14.2803 3.84414 14.2512C3.40438 14.148 3.01522 13.7873 2.87828 13.356C2.85272 13.2756 2.83096 13.1475 2.81973 13.0113C2.79768 12.7443 2.76579 12.6238 2.68344 12.4964C2.47595 12.1754 2.11339 12.0254 1.7547 12.1122Z" fill="currentColor"/>
</g>
<defs>
<clipPath id="clip0_8874_15310">
<rect width="16" height="16" fill="white" transform="translate(0 -0.000732422)"/>
</clipPath>
</defs>
</svg>

<svg xmlns="http://www.w3.org/2000/svg" width="16" height="16" fill="none">
  <g clip-path="url(#a)">
    <path fill="currentColor" fill-rule="evenodd" d="M7.78.025c-.218.06-.196.039-1.765 1.61C4.654 3 4.53 3.128 4.482 3.23a.859.859 0 0 0 .94 1.213c.05-.009.15-.045.22-.08.12-.058.173-.106.816-.746l.688-.685v3.966c0 4.343-.007 4.056.099 4.254.068.128.252.304.384.367.23.11.513.11.743 0 .133-.063.317-.239.385-.367.105-.198.099.089.099-4.254V2.932l.688.685c.643.64.696.688.816.747.07.034.17.07.22.08a.859.859 0 0 0 .94-1.214c-.049-.103-.172-.23-1.533-1.594C8.409.056 8.44.083 8.214.025a.972.972 0 0 0-.433 0ZM1.756 12.112a.878.878 0 0 0-.644.696c-.04.262.038.798.17 1.166a3.052 3.052 0 0 0 2.591 2.008c.26.025 7.998.025 8.258 0a3.06 3.06 0 0 0 2.728-2.53c.032-.19.05-.535.032-.649a.874.874 0 0 0-.702-.702.863.863 0 0 0-.91.468c-.066.135-.072.167-.097.46a1.33 1.33 0 0 1-.159.563c-.178.317-.52.579-.861.659-.128.03-.317.03-4.16.03-3.813 0-4.033 0-4.157-.03a1.378 1.378 0 0 1-.966-.895 1.718 1.718 0 0 1-.058-.345c-.022-.267-.054-.387-.137-.515a.856.856 0 0 0-.928-.384Z" clip-rule="evenodd"/>
  </g>
  <defs>
    <clipPath id="a">
      <path fill="#fff" d="M0 0h16v16H0z"/>
    </clipPath>
  </defs>
</svg>
